static/img/cam-server/ico-content-ai-hide.svg

<svg width="52" height="20" viewBox="0 0 52 20" fill="none" xmlns="http://www.w3.org/2000/svg">
<path d="M47.635 13.8401C45.2517 16.6134 42.3733 18.0001 39 18.0001C36.1609 18.0001 33.6859 17.0134 31.575 15.0401C31.1767 14.6793 30.7917 14.2793 30.42 13.8401C29.3933 12.6668 28.5867 11.3868 28 10.0001C28.5867 8.61346 29.3933 7.33346 30.42 6.16012C32.7667 3.38679 35.6267 2.00013 39 2.00013C41.8495 2.00013 44.3429 2.9868 46.48 4.96013C46.88 5.3295 47.265 5.7295 47.635 6.16013C48.6617 7.33346 49.45 8.61346 50 10.0001C49.45 11.3868 48.6617 12.6668 47.635 13.8401Z" fill="black" fill-opacity="0.75" stroke="white" stroke-linecap="round" stroke-linejoin="round"/>
<circle cx="39.0001" cy="9.91676" r="4.66333" stroke="white"/>
<path d="M48 19.0001L30 1.00013" stroke="white"/>
<rect x="4.5" y="2.50001" width="17" height="13" rx="2.5" fill="#7E7E7E" stroke="black"/>
<path d="M16.9268 5.22254L16.9268 12.9999H15.96L15.96 5.22254H16.9268Z" fill="#EEEEEE"/>
<path d="M9.20313 12.9999H8.19336L11.04 5.22254H12.0606L14.9072 12.9999H13.8867L13.1079 10.8085H9.98194L9.20313 12.9999ZM10.2773 9.95985H12.8125L11.5772 6.47938H11.5127L10.2773 9.95985Z" fill="#EEEEEE"/>
</svg>

<svg xmlns="http://www.w3.org/2000/svg" width="52" height="20" fill="none" viewBox="0 0 52 20"><path fill="#000" fill-opacity=".75" stroke="#fff" stroke-linecap="round" stroke-linejoin="round" d="M47.635 13.84Q44.06 18 39 18q-4.26 0-7.425-2.96-.597-.54-1.155-1.2A14.2 14.2 0 0 1 28 10a14.2 14.2 0 0 1 2.42-3.84Q33.94 2 39 2q4.275 0 7.48 2.96.6.555 1.155 1.2A13.2 13.2 0 0 1 50 10a13.2 13.2 0 0 1-2.365 3.84"/><circle cx="39" cy="9.917" r="4.663" stroke="#fff"/><path stroke="#fff" d="M48 19 30 1"/><rect width="17" height="13" x="4.5" y="2.5" fill="#7e7e7e" stroke="#000" rx="2.5"/><path fill="#eee" d="M16.927 5.223V13h-.967V5.223zM9.203 13h-1.01l2.847-7.777h1.02L14.908 13h-1.02l-.78-2.191H9.983zm1.074-3.04h2.536l-1.236-3.48h-.064z"/></svg>
